X:1
T:Evening Prayer (Randegger), 77.77
T:Evening Prayer (Randegger), 77.77
T:Alberto Randegger (1832-1911)
T:Public Domain Courtesy of the Cyber Hymnal™
C:Alberto Randegger (1832-1911)
Z:Public Domain
Z:Courtesy of the Cyber Hymnal™
%%score ( 1 2 ) 3
L:1/8
Q:1/4=110
M:4/4
K:F
V:1 treble 
V:2 treble 
V:3 bass 
V:1
 [CF]3 [CF] [CF][CF][CE][CF] | ([FA]4 [EG]4) | [EG]3 [EG] [EG][EG]F[EG] | [FA]8 | %4
 [Fc]3 [FA] [CG][CF][CE][CF] | ([B,D]4 [DB]4) | [CA]3 [CF] [CA][CG][CF][CE] | [CF]8 |] %8
V:2
 x8 | x8 | x6 F x | x8 | x8 | x8 | x8 | x8 |] %8
V:3
 [F,A,]3 [F,A,] [F,A,][A,C][G,B,][F,A,] | [C,C]8 | [C,C]3 [C,C] [C,C][B,C][A,C][G,C] | [F,C]8 | %4
 [F,A,]3 [F,C] [A,C][A,C][G,B,][F,A,] | [B,,F,]8 | [C,F,]3 [C,A,] [C,C][C,B,][C,A,][C,G,] | %7
 [F,A,]8 |] %8

